X: 21647
T: Killeigh, The
R: hornpipe
M: 4/4
K: Gmajor
|:(3DEF|G2 A>F G>AB>d|g2 e>g d>GB>d|e>GB>d B>AG>B|(3ABA (3GFE D2 (3DEF|
G2 A>F G>AB>d|g2 e>g d>GB>d|e>GB>d B>AG>E|G2 (3AGF G2-:|
|:G>B|d>GB>d e>GB>d|g2 b>g d>GB>d|c>ec>A B>dB>G|(3aba (3gfe D3 B|
d>GB>d e>GB>d|g2 b>g d>GB>d|E>GB>d B>AG>E|G2 (3AGF G2-:|

